public/images/404/404_text.svg

<svg width="137" height="26" viewBox="0 0 137 26" fill="none" xmlns="http://www.w3.org/2000/svg">
<path d="M18.4263 22.0827H13.7912L6.30905 9.0713H6.20317C6.35218 11.3693 6.42669 13.0084 6.42669 13.9888V22.0827H3.16797V4.88319H7.76783L15.2382 17.7651H15.3205C15.2029 15.5299 15.1441 13.9496 15.1441 13.0241V4.88319H18.4263V22.0827Z" fill="white"/>
<path d="M26.3075 15.4829C26.3075 16.7848 26.5192 17.7691 26.9428 18.4357C27.3741 19.1024 28.0721 19.4357 29.0368 19.4357C29.9936 19.4357 30.6799 19.1063 31.0956 18.4475C31.5191 17.7808 31.7308 16.7926 31.7308 15.4829C31.7308 14.1809 31.5191 13.2045 31.0956 12.5535C30.6721 11.9026 29.978 11.5771 29.0133 11.5771C28.0564 11.5771 27.3663 11.9026 26.9428 12.5535C26.5192 13.1967 26.3075 14.1731 26.3075 15.4829ZM35.4013 15.4829C35.4013 17.624 34.8366 19.2984 33.7073 20.5062C32.5779 21.714 31.0054 22.3179 28.9898 22.3179C27.727 22.3179 26.6134 22.0434 25.6487 21.4944C24.684 20.9376 23.9428 20.1415 23.4252 19.1063C22.9076 18.071 22.6488 16.8632 22.6488 15.4829C22.6488 13.3339 23.2095 11.6634 24.3311 10.4713C25.4526 9.27913 27.029 8.68307 29.0603 8.68307C30.323 8.68307 31.4367 8.95758 32.4014 9.50658C33.3661 10.0556 34.1072 10.8438 34.6249 11.8712C35.1425 12.8986 35.4013 14.1025 35.4013 15.4829Z" fill="white"/>
<path d="M44.8707 19.4592C45.4981 19.4592 46.251 19.322 47.1294 19.0475V21.718C46.2353 22.118 45.1373 22.3179 43.8354 22.3179C42.4002 22.3179 41.3531 21.9572 40.6943 21.2356C40.0434 20.5062 39.7179 19.4161 39.7179 17.9651V11.6242H38.0003V10.1066L39.9767 8.9066L41.012 6.13021H43.306V8.93012H46.9882V11.6242H43.306V17.9651C43.306 18.4749 43.4472 18.8514 43.7295 19.0945C44.0197 19.3376 44.4001 19.4592 44.8707 19.4592Z" fill="white"/>
<path d="M61.8565 22.0827H58.2684V4.88319H68.1269V7.87133H61.8565V12.3065H67.6916V15.2829H61.8565V22.0827Z" fill="white"/>
<path d="M75.0316 15.4829C75.0316 16.7848 75.2434 17.7691 75.6669 18.4357C76.0982 19.1024 76.7963 19.4357 77.7609 19.4357C78.7178 19.4357 79.404 19.1063 79.8197 18.4475C80.2432 17.7808 80.455 16.7926 80.455 15.4829C80.455 14.1809 80.2432 13.2045 79.8197 12.5535C79.3962 11.9026 78.7021 11.5771 77.7374 11.5771C76.7806 11.5771 76.0904 11.9026 75.6669 12.5535C75.2434 13.1967 75.0316 14.1731 75.0316 15.4829ZM84.1254 15.4829C84.1254 17.624 83.5608 19.2984 82.4314 20.5062C81.302 21.714 79.7295 22.3179 77.7139 22.3179C76.4512 22.3179 75.3375 22.0434 74.3728 21.4944C73.4081 20.9376 72.667 20.1415 72.1494 19.1063C71.6317 18.071 71.3729 16.8632 71.3729 15.4829C71.3729 13.3339 71.9337 11.6634 73.0552 10.4713C74.1767 9.27913 75.7532 8.68307 77.7845 8.68307C79.0472 8.68307 80.1609 8.95758 81.1255 9.50658C82.0902 10.0556 82.8314 10.8438 83.349 11.8712C83.8666 12.8986 84.1254 14.1025 84.1254 15.4829Z" fill="white"/>
<path d="M97.3712 22.0827L96.8888 20.4004H96.7006C96.3163 21.0121 95.7712 21.4866 95.0653 21.8238C94.3595 22.1532 93.5556 22.3179 92.6537 22.3179C91.1086 22.3179 89.9439 21.9062 89.1596 21.0827C88.3754 20.2513 87.9832 19.0592 87.9832 17.5063V8.93012H91.5713V16.6122C91.5713 17.5612 91.74 18.2749 92.0772 18.7533C92.4144 19.2239 92.9517 19.4592 93.6889 19.4592C94.6928 19.4592 95.4183 19.1259 95.8653 18.4592C96.3124 17.7848 96.5359 16.6711 96.5359 15.1182V8.93012H100.124V22.0827H97.3712Z" fill="white"/>
<path d="M116.993 22.0827H113.405V14.4005C113.405 13.4516 113.236 12.7418 112.899 12.2712C112.562 11.7928 112.025 11.5536 111.287 11.5536C110.284 11.5536 109.558 11.8908 109.111 12.5653C108.664 13.232 108.44 14.3417 108.44 15.8946V22.0827H104.852V8.93012H107.593L108.076 10.6124H108.276C108.676 9.97715 109.225 9.49873 109.923 9.17718C110.629 8.84777 111.429 8.68307 112.323 8.68307C113.852 8.68307 115.013 9.09875 115.805 9.93009C116.597 10.7536 116.993 11.9457 116.993 13.5065V22.0827Z" fill="white"/>
<path d="M125.815 22.3179C124.27 22.3179 123.055 21.718 122.168 20.518C121.29 19.318 120.851 17.6553 120.851 15.5299C120.851 13.3731 121.298 11.6947 122.192 10.4948C123.094 9.28698 124.333 8.68307 125.91 8.68307C127.564 8.68307 128.827 9.32619 129.698 10.6124H129.815C129.635 9.63206 129.545 8.75758 129.545 7.98898V3.77734H133.145V22.0827H130.392L129.698 20.3768H129.545C128.729 21.6709 127.486 22.3179 125.815 22.3179ZM127.074 19.4592C127.992 19.4592 128.662 19.1926 129.086 18.6592C129.517 18.1259 129.753 17.2201 129.792 15.9417V15.5534C129.792 14.1417 129.572 13.13 129.133 12.5182C128.702 11.9065 127.996 11.6006 127.015 11.6006C126.215 11.6006 125.592 11.9418 125.145 12.6241C124.706 13.2986 124.486 14.2829 124.486 15.577C124.486 16.8711 124.71 17.8436 125.157 18.4945C125.604 19.1377 126.243 19.4592 127.074 19.4592Z" fill="white"/>
<path fill-rule="evenodd" clip-rule="evenodd" d="M21.4379 25.0943H12.0489L9.43831 20.5546V25.0943H0.15625V1.87147H9.50272L12.1323 6.40603V1.87147H21.4379V9.25447C21.6499 8.96107 21.8827 8.67837 22.1375 8.40756C23.9599 6.47046 26.4124 5.67136 29.0603 5.67136C30.7723 5.67136 32.4128 6.04783 33.891 6.88905C34.49 7.22996 35.0331 7.63198 35.5188 8.08983L37.52 6.87477L38.9207 3.11849H46.3176V5.91841H49.9999V14.6358H46.3176V16.1458L50.141 14.951V23.6699L48.3592 24.467C46.9732 25.0871 45.4286 25.3296 43.8354 25.3296C41.955 25.3296 39.9232 24.8577 38.4702 23.2663L38.4587 23.2537L38.4473 23.2409C37.8206 22.5387 37.3986 21.7388 37.1272 20.8972C36.7938 21.4893 36.3895 22.0472 35.907 22.5631C34.0865 24.51 31.6426 25.3296 28.9897 25.3296C27.2777 25.3296 25.6372 24.9531 24.159 24.1119L24.151 24.1073L24.143 24.1027C23.0511 23.4724 22.1466 22.6394 21.4379 21.6363V25.0943ZM35.367 14.6358C35.3105 13.9581 35.1844 13.3279 34.9886 12.7452C34.8863 12.4409 34.7651 12.1495 34.6248 11.8712C34.1072 10.8437 33.366 10.0555 32.4014 9.50653C32.1511 9.36413 31.8909 9.2402 31.6206 9.13473C30.8489 8.8336 29.9955 8.68303 29.0603 8.68303C29.0446 8.68303 29.0289 8.68306 29.0132 8.68313C28.1411 8.68711 27.3535 8.80171 26.6502 9.02695C25.7338 9.32048 24.9607 9.8019 24.331 10.4712C23.2095 11.6633 22.6487 13.3339 22.6487 15.4828C22.6487 16.8632 22.9075 18.071 23.4252 19.1062C23.9428 20.1415 24.684 20.9375 25.6486 21.4944C25.8779 21.6248 26.1155 21.7398 26.3615 21.8392C27.151 22.1583 28.027 22.3179 28.9897 22.3179C29.0054 22.3179 29.0211 22.3179 29.0368 22.3178C29.9731 22.3134 30.8132 22.1778 31.557 21.9109C32.3964 21.6098 33.1131 21.1416 33.7072 20.5062C34.8366 19.2984 35.4013 17.6239 35.4013 15.4828C35.4013 15.1927 35.3898 14.9103 35.367 14.6358ZM30.3985 11.894C30.0353 11.6887 29.5892 11.5832 29.0603 11.5773C29.0447 11.5771 29.029 11.5771 29.0132 11.5771C28.5071 11.5771 28.0757 11.6681 27.7188 11.8502C27.4009 12.0124 27.1422 12.2468 26.9427 12.5535C26.5192 13.1966 26.3074 14.1731 26.3074 15.4828C26.3074 16.7847 26.5192 17.769 26.9427 18.4357C27.1233 18.7148 27.3507 18.9355 27.6248 19.0977C27.9946 19.3167 28.4496 19.4292 28.9897 19.4354C29.0053 19.4355 29.021 19.4356 29.0368 19.4356C29.5715 19.4356 30.0217 19.3328 30.3874 19.127C30.6761 18.9646 30.9121 18.7381 31.0955 18.4474C31.519 17.7808 31.7308 16.7926 31.7308 15.4828C31.7308 14.1809 31.519 13.2045 31.0955 12.5535C30.9133 12.2734 30.6809 12.0535 30.3985 11.894ZM43.7295 19.0945C43.4471 18.8513 43.306 18.4749 43.306 17.9651V11.6241H46.9882V8.93008H43.306V6.13016H41.0119L39.9767 8.90655L38.0002 10.1065V11.6241H39.7178V17.9651C39.7178 19.416 40.0433 20.5062 40.6943 21.2356C41.3144 21.9147 42.2784 22.2743 43.5864 22.3142C43.668 22.3167 43.751 22.3179 43.8354 22.3179C44.1961 22.3179 44.5412 22.3025 44.8706 22.2718C45.7301 22.1917 46.483 22.0071 47.1294 21.7179V19.0474C46.7493 19.1662 46.3927 19.2593 46.0596 19.3266C45.6229 19.415 45.2266 19.4592 44.8706 19.4592C44.5869 19.4592 44.3359 19.415 44.1177 19.3265C44.0995 19.3192 44.0815 19.3115 44.0637 19.3035C43.9415 19.2484 43.8301 19.1787 43.7295 19.0945ZM15.144 13.0241C15.144 13.6999 15.1754 14.7251 15.2381 16.0995C15.2607 16.594 15.2873 17.1338 15.318 17.7188C15.3189 17.7342 15.3197 17.7496 15.3205 17.7651H15.2381L7.76778 4.88314H3.16792V22.0826H6.42664V13.9887C6.42664 13.2775 6.38743 12.2195 6.309 10.8148C6.28025 10.2998 6.24622 9.73819 6.20692 9.12995C6.20566 9.11043 6.20439 9.09086 6.20312 9.07125H6.309L13.7911 22.0826H18.4263V4.88314H15.144V13.0241ZM64.8681 25.0943H55.2567V1.87147H71.1385V8.12662C72.9288 6.39286 75.2684 5.67136 77.7844 5.67136C79.4964 5.67136 81.137 6.04783 82.6151 6.88905C83.534 7.412 84.3214 8.07878 84.9715 8.87026V5.91841H109.863L109.884 5.99226C110.675 5.77181 111.494 5.67136 112.323 5.67136C114.389 5.67136 116.451 6.24477 117.981 7.84804C118.492 8.38046 118.89 8.9693 119.192 9.59521C119.367 9.28468 119.562 8.98428 119.777 8.69532L119.779 8.69275C121.279 6.68372 123.434 5.67136 125.91 5.67136C126.12 5.67136 126.328 5.67852 126.533 5.69286V0.765625H136.156V25.0943H128.366L128.309 24.9544C127.528 25.2057 126.691 25.3296 125.815 25.3296C123.495 25.3296 121.467 24.4208 120.005 22.6396V25.0943H95.1016L95.0789 25.0152C94.2917 25.2315 93.4775 25.3296 92.6536 25.3296C90.59 25.3296 88.5125 24.7701 86.9787 23.1597L86.9738 23.1545L86.9689 23.1493C86.4092 22.5559 85.9868 21.8949 85.678 21.1915C85.3805 21.6748 85.0329 22.1335 84.6311 22.5631C82.8107 24.51 80.3667 25.3296 77.7138 25.3296C76.0018 25.3296 74.3613 24.9531 72.8832 24.1119L72.8751 24.1073L72.8672 24.1027C71.3707 23.2389 70.2262 21.9943 69.4556 20.4531C69.1107 19.7633 68.854 19.0412 68.6763 18.2945H64.8681V25.0943ZM67.6916 15.2828V12.3064H61.8565V7.87129H68.1268V4.88314H58.2683V22.0826H61.8565V15.2828H67.6916ZM97.3711 22.0826H100.124V8.93008H96.5358V15.1181C96.5358 16.0246 96.4597 16.7815 96.3073 17.3886C96.1987 17.8216 96.0514 18.1784 95.8653 18.4592C95.62 18.8249 95.291 19.0903 94.8781 19.2554C94.6074 19.3637 94.3007 19.4288 93.9579 19.4508C93.9494 19.4513 93.9408 19.4518 93.9323 19.4523C93.853 19.4569 93.7719 19.4592 93.6889 19.4592C93.3435 19.4592 93.042 19.4075 92.7844 19.3042C92.4922 19.1871 92.2564 19.0034 92.0772 18.7533C91.7399 18.2749 91.5713 17.5612 91.5713 16.6122V8.93008H87.9832V17.5063C87.9832 19.0592 88.3753 20.2513 89.1596 21.0826C89.8886 21.8481 90.9461 22.2578 92.3323 22.3118C92.4375 22.3158 92.5446 22.3179 92.6536 22.3179C93.0144 22.3179 93.3595 22.2915 93.6889 22.2388C93.8808 22.2081 94.0675 22.1685 94.2488 22.1199C94.5341 22.0433 94.8063 21.9447 95.0653 21.8238C95.7455 21.4988 96.2764 21.0464 96.658 20.4665C96.6724 20.4446 96.6866 20.4225 96.7005 20.4003H96.8888L97.3711 22.0826ZM130.392 22.0826H133.145V3.7773H129.545V7.98893C129.545 8.34409 129.564 8.72186 129.602 9.12224C129.627 9.37327 129.658 9.63319 129.698 9.90199C129.728 10.1098 129.763 10.323 129.802 10.5415C129.807 10.5651 129.811 10.5887 129.815 10.6124H129.698C129.032 9.62962 128.138 9.0223 127.015 8.79043C126.865 8.75943 126.711 8.73515 126.553 8.71757C126.371 8.69735 126.183 8.68601 125.99 8.68354C125.963 8.6832 125.937 8.68303 125.91 8.68303C124.333 8.68303 123.094 9.28693 122.192 10.4947C121.298 11.6947 120.851 13.3731 120.851 15.5299C120.851 17.6553 121.29 19.318 122.168 20.518C123.041 21.6992 124.233 22.2991 125.743 22.3175C125.767 22.3178 125.791 22.3179 125.815 22.3179C126.266 22.3179 126.686 22.2708 127.074 22.1766C127.106 22.1689 127.137 22.1609 127.169 22.1526C128.144 21.8934 128.918 21.3296 129.49 20.4611C129.509 20.4333 129.527 20.4052 129.545 20.3768H129.698L130.392 22.0826ZM129.133 12.5182C128.869 12.144 128.502 11.8842 128.033 11.7389C127.735 11.6467 127.396 11.6006 127.015 11.6006C126.747 11.6006 126.499 11.6389 126.27 11.7156C125.817 11.8677 125.442 12.1705 125.145 12.6241C124.706 13.2986 124.486 14.2829 124.486 15.5769C124.486 16.871 124.71 17.8435 125.157 18.4945C125.417 18.8691 125.743 19.1346 126.133 19.291C126.413 19.4031 126.727 19.4592 127.074 19.4592C127.391 19.4592 127.679 19.4273 127.937 19.3636C128.426 19.2429 128.809 19.0082 129.086 18.6592C129.278 18.4223 129.43 18.1118 129.545 17.7278C129.579 17.6134 129.609 17.4925 129.636 17.3651C129.723 16.9574 129.775 16.4829 129.792 15.9416V15.5534C129.792 14.7948 129.728 14.1517 129.602 13.624C129.492 13.1698 129.336 12.8012 129.133 12.5182ZM115.805 9.93005C115.058 9.14618 113.983 8.73186 112.581 8.68709C112.496 8.68438 112.41 8.68303 112.323 8.68303C111.962 8.68303 111.617 8.70978 111.287 8.7633C111.091 8.79518 110.9 8.83657 110.714 8.88745C110.438 8.96304 110.175 9.0596 109.923 9.17713C109.251 9.48671 108.717 9.94168 108.321 10.542C108.306 10.5653 108.291 10.5887 108.276 10.6124H108.076L107.593 8.93008H104.852V22.0826H108.44V15.8946C108.44 14.9861 108.517 14.2292 108.67 13.624C108.778 13.1948 108.925 12.8419 109.111 12.5653C109.356 12.1953 109.685 11.9268 110.098 11.7597C110.37 11.6499 110.677 11.5839 111.021 11.5618C111.026 11.5615 111.031 11.5612 111.035 11.561C111.117 11.556 111.201 11.5535 111.287 11.5535C111.618 11.5535 111.909 11.6017 112.159 11.6979C112.466 11.8163 112.713 12.0074 112.899 12.2712C113.236 12.7417 113.405 13.4515 113.405 14.4005V22.0826H116.993V13.5064C116.993 11.9457 116.597 10.7536 115.805 9.93005ZM74.3728 21.4944C73.4081 20.9375 72.6669 20.1415 72.1493 19.1062C71.6317 18.071 71.3729 16.8632 71.3729 15.4828C71.3729 13.3339 71.9336 11.6633 73.0552 10.4712C73.6848 9.80189 74.4579 9.32049 75.3743 9.02696C76.0776 8.80172 76.8653 8.68711 77.7374 8.68313C77.753 8.68306 77.7687 8.68303 77.7844 8.68303C78.7196 8.68303 79.5731 8.83362 80.3448 9.13475C80.6151 9.24022 80.8753 9.36413 81.1255 9.50653C82.0902 10.0555 82.8313 10.8437 83.349 11.8712C83.8666 12.8986 84.1254 14.1025 84.1254 15.4828C84.1254 17.6239 83.5607 19.2984 82.4313 20.5062C81.8372 21.1416 81.1205 21.6098 80.2812 21.9109C79.5374 22.1778 78.6973 22.3134 77.7609 22.3178C77.7452 22.3179 77.7296 22.3179 77.7138 22.3179C76.7512 22.3179 75.8751 22.1583 75.0857 21.8392C74.8396 21.7398 74.602 21.6248 74.3728 21.4944ZM79.1226 11.8939C78.7594 11.6887 78.3133 11.5832 77.7844 11.5773C77.7688 11.5771 77.7531 11.5771 77.7374 11.5771C77.2313 11.5771 76.7998 11.6681 76.4429 11.8502C76.1251 12.0124 75.8664 12.2468 75.6668 12.5535C75.2433 13.1966 75.0316 14.1731 75.0316 15.4828C75.0316 16.7847 75.2433 17.769 75.6668 18.4357C75.8475 18.7148 76.0748 18.9355 76.3489 19.0977C76.7188 19.3167 77.1737 19.4292 77.7138 19.4354C77.7295 19.4355 77.7451 19.4356 77.7609 19.4356C78.2956 19.4356 78.7458 19.3328 79.1115 19.127C79.4002 18.9646 79.6363 18.7381 79.8197 18.4474C80.2432 17.7808 80.4549 16.7926 80.4549 15.4828C80.4549 14.1809 80.2432 13.2045 79.8197 12.5535C79.6374 12.2734 79.4051 12.0535 79.1226 11.8939Z" fill="#1D2828"/>
</svg>

<svg width="137" height="26" fill="none" xmlns="http://www.w3.org/2000/svg"><path d="M18.426 22.083h-4.635L6.31 9.07h-.106c.15 2.298.224 3.937.224 4.918v8.094H3.168v-17.2h4.6l7.47 12.882h.082c-.117-2.235-.176-3.815-.176-4.74V4.882h3.282v17.2ZM26.308 15.483c0 1.302.211 2.286.635 2.953.431.666 1.13 1 2.094 1 .957 0 1.643-.33 2.059-.988.423-.667.635-1.655.635-2.965 0-1.302-.212-2.279-.635-2.93-.424-.65-1.118-.976-2.083-.976-.957 0-1.647.326-2.07.976-.424.644-.636 1.62-.636 2.93Zm9.093 0c0 2.141-.564 3.815-1.694 5.023-1.13 1.208-2.702 1.812-4.717 1.812-1.263 0-2.377-.275-3.341-.824-.965-.556-1.706-1.352-2.224-2.388-.517-1.035-.776-2.243-.776-3.623 0-2.15.56-3.82 1.682-5.012 1.122-1.192 2.698-1.788 4.73-1.788 1.262 0 2.376.275 3.34.824.965.549 1.706 1.337 2.224 2.364.517 1.028.776 2.231.776 3.612ZM44.87 19.46c.628 0 1.381-.138 2.26-.413v2.671c-.895.4-1.993.6-3.295.6-1.435 0-2.482-.36-3.14-1.082-.652-.73-.977-1.82-.977-3.27v-6.342H38v-1.517l1.977-1.2 1.035-2.777h2.294v2.8h3.682v2.694h-3.682v6.341c0 .51.141.886.424 1.13.29.243.67.364 1.14.364ZM61.856 22.083h-3.588v-17.2h9.859v2.988h-6.27v4.435h5.835v2.977h-5.835v6.8ZM75.032 15.483c0 1.302.211 2.286.635 2.953.431.666 1.13 1 2.094 1 .957 0 1.643-.33 2.059-.988.423-.667.635-1.655.635-2.965 0-1.302-.212-2.279-.635-2.93-.424-.65-1.118-.976-2.083-.976-.956 0-1.647.326-2.07.976-.424.644-.635 1.62-.635 2.93Zm9.093 0c0 2.141-.564 3.815-1.694 5.023-1.129 1.208-2.701 1.812-4.717 1.812-1.263 0-2.376-.275-3.341-.824-.965-.556-1.706-1.352-2.224-2.388-.517-1.035-.776-2.243-.776-3.623 0-2.15.56-3.82 1.682-5.012 1.122-1.192 2.698-1.788 4.73-1.788 1.262 0 2.376.275 3.34.824.965.549 1.706 1.337 2.224 2.364.518 1.028.776 2.231.776 3.612ZM97.371 22.083 96.89 20.4H96.7c-.385.612-.93 1.087-1.636 1.424-.706.33-1.51.494-2.411.494-1.545 0-2.71-.412-3.494-1.235-.785-.832-1.177-2.024-1.177-3.577V8.93h3.588v7.682c0 .95.169 1.663.506 2.141.337.47.875.706 1.612.706 1.004 0 1.73-.333 2.176-1 .447-.674.67-1.788.67-3.34V8.93h3.589v13.153h-2.753ZM116.993 22.083h-3.588V14.4c0-.95-.169-1.66-.506-2.13-.337-.478-.874-.717-1.612-.717-1.003 0-1.729.337-2.176 1.011-.447.667-.671 1.777-.671 3.33v6.188h-3.588V8.93h2.741l.483 1.682h.2c.4-.635.949-1.113 1.647-1.435.706-.33 1.506-.494 2.4-.494 1.529 0 2.69.416 3.482 1.247.792.824 1.188 2.016 1.188 3.577v8.576ZM125.815 22.318c-1.545 0-2.76-.6-3.647-1.8-.878-1.2-1.317-2.863-1.317-4.988 0-2.157.447-3.835 1.341-5.035.902-1.208 2.141-1.812 3.718-1.812 1.654 0 2.917.643 3.788 1.93h.117c-.18-.98-.27-1.855-.27-2.624V3.777h3.6v18.306h-2.753l-.694-1.706h-.153c-.816 1.294-2.059 1.94-3.73 1.94Zm1.259-2.859c.918 0 1.588-.266 2.012-.8.431-.533.667-1.439.706-2.717v-.389c0-1.411-.22-2.423-.659-3.035-.431-.612-1.137-.917-2.118-.917-.8 0-1.423.34-1.87 1.023-.439.675-.659 1.659-.659 2.953 0 1.294.224 2.267.671 2.917.447.644 1.086.965 1.917.965Z" fill="#fff"/><path fill-rule="evenodd" clip-rule="evenodd" d="M21.438 25.094h-9.39l-2.61-4.54v4.54H.156V1.871h9.347l2.63 4.535V1.871h9.305v7.383c.212-.293.445-.576.7-.846C23.96 6.47 26.412 5.67 29.06 5.67c1.712 0 3.353.377 4.831 1.218.599.341 1.142.743 1.628 1.2l2.001-1.214 1.4-3.757h7.398v2.8H50v8.718h-3.682v1.51l3.823-1.195v8.719l-1.782.797c-1.386.62-2.93.863-4.524.863-1.88 0-3.912-.472-5.365-2.064l-.011-.012-.012-.013a6.45 6.45 0 0 1-1.32-2.344 8.628 8.628 0 0 1-1.22 1.666c-1.82 1.947-4.264 2.767-6.917 2.767-1.712 0-3.353-.377-4.831-1.218l-.008-.005-.008-.004a8.47 8.47 0 0 1-2.705-2.467v3.458Zm13.929-10.458a8.007 8.007 0 0 0-.378-1.89 6.636 6.636 0 0 0-.364-.875c-.518-1.027-1.259-1.816-2.224-2.364a5.952 5.952 0 0 0-.78-.372c-.772-.301-1.625-.452-2.56-.452h-.048c-.872.004-1.66.119-2.363.344a5.375 5.375 0 0 0-2.319 1.444c-1.122 1.192-1.682 2.863-1.682 5.012 0 1.38.258 2.588.776 3.623.518 1.035 1.259 1.831 2.224 2.388.229.13.466.246.712.345.79.32 1.666.479 2.629.479h.047c.936-.005 1.776-.14 2.52-.407a5.388 5.388 0 0 0 2.15-1.405c1.13-1.208 1.694-2.882 1.694-5.023 0-.29-.011-.573-.034-.847Zm-4.968-2.742c-.364-.205-.81-.31-1.339-.317h-.047c-.506 0-.937.091-1.294.273a1.995 1.995 0 0 0-.776.704c-.424.643-.636 1.62-.636 2.929 0 1.302.212 2.286.636 2.953.18.279.408.5.682.662.37.219.825.331 1.365.337h.047c.535 0 .985-.102 1.35-.308.29-.162.525-.389.709-.68.423-.666.635-1.654.635-2.964 0-1.302-.212-2.279-.636-2.93a1.99 1.99 0 0 0-.697-.659Zm13.33 7.2c-.282-.243-.423-.62-.423-1.129v-6.34h3.682V8.93h-3.682v-2.8h-2.294l-1.035 2.777-1.977 1.2v1.517h1.718v6.341c0 1.451.325 2.541.976 3.27.62.68 1.584 1.04 2.892 1.08a11.164 11.164 0 0 0 1.284-.042c.86-.081 1.613-.266 2.26-.555v-2.67c-.38.118-.737.211-1.07.279a6.042 6.042 0 0 1-1.19.132 1.991 1.991 0 0 1-.806-.155 1.44 1.44 0 0 1-.334-.21Zm-28.585-6.07c0 .676.031 1.701.094 3.075a240.938 240.938 0 0 0 .082 1.666h-.082L7.768 4.883h-4.6v17.2h3.259v-8.094c0-.712-.04-1.77-.118-3.174-.029-.515-.063-1.077-.102-1.685l-.004-.059h.106l7.482 13.012h4.635v-17.2h-3.282v8.141Zm49.724 12.07h-9.611V1.871h15.881v6.256c1.79-1.734 4.13-2.456 6.646-2.456 1.712 0 3.353.377 4.831 1.218a8.417 8.417 0 0 1 2.357 1.981V5.918h24.891l.021.074c.791-.22 1.61-.32 2.439-.32 2.066 0 4.128.573 5.658 2.176a6.735 6.735 0 0 1 1.211 1.747c.175-.31.37-.61.585-.9l.002-.002c1.5-2.01 3.655-3.022 6.131-3.022.21 0 .418.008.623.022V.766h9.623v24.328h-7.79l-.057-.14a8.12 8.12 0 0 1-2.494.376c-2.32 0-4.348-.91-5.81-2.69v2.454H95.102l-.023-.079a9.135 9.135 0 0 1-2.425.315c-2.064 0-4.141-.56-5.675-2.17l-.005-.006-.005-.005a6.838 6.838 0 0 1-1.291-1.957 8.614 8.614 0 0 1-1.047 1.371c-1.82 1.947-4.264 2.767-6.917 2.767-1.712 0-3.353-.377-4.83-1.218l-.009-.005-.008-.004c-1.496-.864-2.64-2.109-3.411-3.65a9.975 9.975 0 0 1-.78-2.159h-3.808v6.8Zm2.824-9.811v-2.977h-5.835V7.871h6.27V4.883h-9.859v17.2h3.588v-6.8h5.836Zm29.68 6.8h2.752V8.93h-3.588v6.188c0 .907-.076 1.664-.229 2.27-.108.434-.256.79-.442 1.071a2.1 2.1 0 0 1-.987.796c-.27.109-.577.174-.92.196l-.026.001c-.079.005-.16.007-.243.007a2.42 2.42 0 0 1-.905-.155 1.569 1.569 0 0 1-.707-.55c-.337-.48-.506-1.193-.506-2.142V8.93h-3.588v8.576c0 1.553.392 2.745 1.177 3.577.729.765 1.786 1.175 3.172 1.229.106.004.213.006.322.006.36 0 .706-.027 1.035-.08.192-.03.379-.07.56-.118.285-.077.557-.175.816-.296.68-.325 1.211-.778 1.593-1.358a3.54 3.54 0 0 0 .043-.066h.188l.482 1.683Zm33.02 0h2.753V3.777h-3.6V7.99c0 .355.019.733.057 1.133a19.52 19.52 0 0 0 .213 1.49h-.117c-.666-.982-1.56-1.59-2.683-1.822a5.03 5.03 0 0 0-.462-.072 5.771 5.771 0 0 0-.643-.035c-1.577 0-2.816.604-3.718 1.812-.894 1.2-1.341 2.878-1.341 5.035 0 2.125.439 3.788 1.317 4.988.873 1.181 2.065 1.781 3.575 1.8a5.76 5.76 0 0 0 1.331-.141l.095-.024c.975-.26 1.749-.823 2.321-1.692l.055-.084h.153l.694 1.706Zm-1.259-9.565a2.04 2.04 0 0 0-1.1-.78 3.442 3.442 0 0 0-1.018-.137 2.33 2.33 0 0 0-.745.115c-.453.152-.828.455-1.125.908-.439.675-.659 1.659-.659 2.953 0 1.294.224 2.266.671 2.917.26.375.586.64.976.797.28.112.594.168.941.168.317 0 .605-.032.863-.095.489-.121.872-.356 1.149-.705.192-.237.344-.547.459-.931.034-.115.064-.236.091-.363.087-.408.139-.882.156-1.423v-.389c0-.758-.064-1.401-.19-1.929-.11-.454-.266-.823-.469-1.106ZM115.805 9.93c-.747-.784-1.822-1.198-3.224-1.243a6.463 6.463 0 0 0-1.294.076 5.542 5.542 0 0 0-.573.124 4.974 4.974 0 0 0-.791.29 3.763 3.763 0 0 0-1.647 1.435h-.2l-.483-1.682h-2.741v13.153h3.588v-6.188c0-.909.077-1.666.23-2.271.108-.43.255-.782.441-1.059.245-.37.574-.638.987-.805a2.96 2.96 0 0 1 .923-.198l.014-.001c.082-.005.166-.008.252-.008.331 0 .622.049.872.145.307.118.554.31.74.573.337.47.506 1.18.506 2.13v7.682h3.588v-8.577c0-1.56-.396-2.752-1.188-3.576ZM74.373 21.494c-.965-.556-1.706-1.352-2.224-2.388-.517-1.035-.776-2.243-.776-3.623 0-2.15.56-3.82 1.682-5.012a5.374 5.374 0 0 1 2.32-1.444c.703-.225 1.49-.34 2.362-.344h.047c.936 0 1.79.15 2.56.452.271.105.531.23.782.372.964.549 1.705 1.337 2.223 2.364.518 1.028.776 2.231.776 3.612 0 2.14-.564 3.815-1.694 5.023a5.389 5.389 0 0 1-2.15 1.405c-.744.267-1.584.402-2.52.407h-.047c-.963 0-1.839-.16-2.628-.479a5.934 5.934 0 0 1-.713-.345Zm4.75-9.6c-.364-.205-.81-.31-1.339-.317h-.047c-.506 0-.937.091-1.294.273a1.996 1.996 0 0 0-.776.704c-.424.643-.635 1.62-.635 2.929 0 1.302.211 2.286.635 2.953.18.279.408.5.682.662.37.219.825.331 1.365.337h.047c.535 0 .985-.102 1.35-.308.29-.162.525-.389.709-.68.423-.666.635-1.654.635-2.964 0-1.302-.212-2.279-.635-2.93-.183-.28-.415-.5-.697-.66Z" fill="#1D2828"/></svg>
